X:4767
T:Oh the Trees They Grow so Green
O:england
M:3/4
L:1/4
S:Kevin Keegan
R:waltz
K:G
dc|B2G|D2B,|C3|B,2C|DG2|G2F|G3-|G2A|\
B2A|B2c|d3|B2d|c2E|F2E|D3-|D2d|
d3|B2d|c3|B2A|G3|E3|c3-|c2B/A/|\
G2F|D2B,|C3|B,2C|DG2|G2F|G3-|G3||


